X:1
T:For the Whole Wide World
T:For the Whole Wide World
T:Lelia Naylor Morris
T:Lelia Naylor Morris, 1912
T:Public Domain Courtesy of the Cyber Hymnal™
T:Public Domain Courtesy of the Cyber Hymnal™
C:Lelia Naylor Morris
Z:Public Domain
Z:Courtesy of the Cyber Hymnal™
%%score ( 1 2 ) ( 3 4 )
L:1/8
Q:1/4=110
M:4/4
K:Eb
V:1 treble 
V:2 treble 
V:3 bass 
V:4 bass 
V:1
 [EG][FA] | [GB]2 [GB]>[GB] [GB]2 [EG][EB] | [EB][FA][EG][DF] [CE]2 [DF][DF] | %3
w: 1.~“Of one|blood God hath made all the|na- tions of the earth,” O- ver|
w: 2.~To the|lanes and the high- ways and|by- ways we must go, Till the|
w: 3.~We must|car- ry the Gos- pel to|earth’s re- mot- est bound, Men are|
 [EG][EG][EA][EA] [EB]2 [Ec]2 | [DF]6 [DF][EG] | [DA]2 [FA]>[FA] [FA]2 [EG][DF] | %6
w: all His ban- ner wide un-|furled; And He|bids us to go and His|
w: pow’rs of sin are back- ward|hurled; And the|streams of His grace shall for|
w: dy- ing for the pre- cious|Word; U- n-|til ev- ery na- tion has|
 [EG][FA][GB][Ac] [GB]2 [GB][_Gc] | [Fd]4 [Fc]4 | [FB]6 ||"^Refrain" [EG][FA] | [GB]4 [Ac]4 | %11
w: sav- ing grace pro- claim To the|whole wide|world.|||
w: cleans- ing on- ward flow To the|whole wide|world.|For the|whole wide|
w: heard the joy- ful sound In the|whole wide|world.|||
 [GB]6 [EG][GB] | [Ge]4 [Ae]4 | [Ge]6 z2 | [Ac]2 [Ae]2 [Ae]2 [Ac]2 | %15
w: ||||
w: world, For the|whole wide|world;|Je- sus dy- ing|
w: ||||
 [GB]>[^F=A] [GB][_Ac] [GB][=FA][EG][GB] | [=Ae]4"^riten." [_Af]4!ff! | e4 [Ge]4 |] %18
w: |||
w: brought a full sal- va- tion For the|whole wide|world. *|
w: |||
V:2
 x2 | x8 | x8 | x8 | x8 | x8 | x8 | x8 | x6 || x2 | x8 | x8 | x8 | x8 | x8 | x8 | x8 | G2 A2 x4 |] %18
V:3
 [E,B,][E,B,] | [E,E]2 [E,E]>[E,E] [E,E]2 [E,B,][G,B,] | %2
 [G,B,][A,C]B,[B,,A,] [C,G,]2 [B,,B,][B,,B,] | [E,B,][E,B,][C,A,][C,A,] [B,,G,]2 [A,,A,]2 | %4
 [B,,A,]6 [A,B,][G,B,] | [F,B,]2 [B,,D]>[B,,D] [B,,D]2 [B,,B,][B,,B,] | %6
 [E,B,][E,B,][E,E][E,E] [E,E]2 z2 | z [F,B,][F,D][F,F] [F,E]2 [F,E]2 | [B,,D]6 || z2 | %10
 z [E,E][E,E][E,E] [A,E]2 [A,E]2 | [E,E]6 z2 | z [E,B,][E,B,][E,B,] [E,C]2 [E,C]2 | %13
 [E,B,]2 [E,B,]2 [E,E]2 z2 | [F,E]2 [A,C]2 [A,C]2 [A,E]2 | [E,E]>[E,E] [E,E][E,E] [E,E][E,E]B,B, | %16
 [F,C]2 [F,C]2 [B,,B,]2 [B,,B,]2 | [E,B,]2 [E,C]2 [E,B,]4 |] %18
V:4
 x2 | x8 | x2 B, x5 | x8 | x8 | x8 | x8 | x8 | x6 || x2 | x8 | x8 | x8 | x8 | x8 | x6 B,B, | x8 | %17
 x8 |] %18

